src/images/std-icons/std-friends.svg

<svg xmlns="http://www.w3.org/2000/svg" width="512" height="512" viewBox="0 0 512 512">
  <title>friends</title>
  <path fill="#000" fill-rule="nonzero" d="M192 277.333333C142.293333 277.333333 64 302.293333 64 352L64 384C64.0351445 395.767487 73.5658468 405.298189 85.3333333 405.333333L298.666667 405.333333C310.434153 405.298189 319.964855 395.767487 320 384L320 352C320 302.293333 241.706667 277.333333 192 277.333333zM192 234.66723C227.346224 234.66723 256 206.012891 256 170.666667 256 135.320443 227.346224 106.666667 192 106.666667 156.653776 106.666667 127.999436 135.320443 127.999436 170.666667 127.928566 187.66232 134.648463 203.982508 146.666311 216.000356 158.684159 228.018204 175.004346 234.7381 192 234.66723L192 234.66723zM341.333333 241.777751C370.78852 241.777751 394.666667 217.899133 394.666667 188.443947 394.666667 158.98876 370.78852 135.110613 341.333333 135.110613 311.878147 135.110613 287.999529 158.98876 287.999529 188.443947 287.940424 202.607006 293.540322 216.20719 303.555206 226.222074 313.57009 236.236958 327.170274 241.836856 341.333333 241.777751zM341.333333 277.333333C332.101119 277.412169 322.893193 278.292633 313.813333 279.9648 341.821227 294.461013 362.666667 315.46624 362.666667 343.111467L362.666667 384 430.22272 384C440.029279 383.970942 447.971648 376.028001 448 366.22144L448 339.554773C448 298.133333 382.75648 277.333333 341.333333 277.333333z"/>
</svg>

<svg xmlns="http://www.w3.org/2000/svg" viewBox="0 0 512 512">
  <title>
    friends
  </title>
  <path d="M192 277.33c-49.7 0-128 24.96-128 74.67v32a21.4 21.4 0 0 0 21.33 21.33h213.34A21.4 21.4 0 0 0 320 384v-32c0-49.7-78.3-74.67-128-74.67zm0-42.66a64 64 0 1 0-64-64 63.74 63.74 0 0 0 64 64zm149.33 7.1A53.33 53.33 0 1 0 288 188.45a53.11 53.11 0 0 0 53.33 53.34zm0 35.56c-9.23.08-18.44.96-27.52 2.63 28.01 14.5 48.86 35.5 48.86 63.15V384h67.55A17.83 17.83 0 0 0 448 366.22v-26.67c0-41.42-65.24-62.22-106.67-62.22z"/>
</svg>
